X:1
T:James Gibb editions
T:Will you buy a fine dog? - Morley
T:#
%%score [ 1 2 ]
L:1/8
Q:1/4=84
M:2/2
K:C
V:1 treble-8 nm="Tenor" snm="T"
V:2 bass nm="Lute"
V:1
"^Will you buy a fine dog?""^Thomas Morley\n(1557-1602)" z8 | z8 | z2 E>F G>A G2 | G2 z4 GG | %4
w: ||Will you buy a fine|dog, with a|
 A2 GA B2 z B/c/ |[M:2/2][K:treble-8] d2 G2 z2 z E/F/ | G2 E F2 D z2 | z B/c/ d2 G c2 A | %8
w: hole in his head? With a|dil- do, with a|dil- do, dil- do,|with a dil- do, dil- do,|
 B2 G2 z4 | z4 z2 G2 | G2 G2 A2 GA- | AcBc d2 z B/B/ | c2 G2 z2 z E/F/ | G2 E F2 D z2 | %14
w: dil- do;|Muffs,|cuffs, ri- ba- tos, and|* fine sis- ters' thread, With a|dil- do, with a|dil- do, dil- do,|
 z B/c/ d2 G c2 G | z4 A2 A2- | A2 AA A2 A2 | A/A/A A2 AA z2 | G2 GG GG G2 | Ac B2 c2 c2 | %20
w: with a dil- do, dil- do;|I stand|* not on points, pins,|pe- ri- wigs, combs, glass- es,|Gloves, gar- ters, gir- dles, busks,|for the brisk lass- es;|
 z4 z2 Bc | d2 BG cGAG | E2 z2 z4 | z2 B2 A3 G | EF G2 z B/c/ d2 | G c2 d e2 c2 | d/c/B/A/BG z4 | %27
w: But I|have o- ther dain- ty, dain- ty|tricks,|Sleek stones and|pot- ting sticks, With a dil-|do, dil- do, dil- do,|did- dle, did- dle, dil- do;|
 z2 G2 A2 c2 | B3 c dcBA | GF E2 z2 G2 | E2 z2 A2 F2 | z2 c2 B2 c2 | z C/D/ E2 C2 z C/D/ | %33
w: And for a|need my pret- ty, pret- ty,|pret- ty pods, Am-|ber, ci- vet,|and musk cods,|With a dil- do, with a|
 E/D/E/F/GE z G/A/ B/A/B/c/ | d/c/B/A/ B/A/G/F/ G/F/E/D/ E2 | C2 z E/E/ A4 | %36
w: did- dle, did- dle, dil- do, with a did- dle, did- dle,|did- dle, did- dle, did- dle, did- dle, did- dle, did- dle, dil-|do, with a dil-|
 G2 G/F/E/F/ G/F/E/F/ G/F/E/D/ | E2 C2 z4 |] %38
w: do, did- dle, did- dle, did- dle, did- dle, did- dle, did- dle,|dil- do!|
V:2
 C,2 C,2 C,2 G,2- | G,2 D,2 E,2 F,2 | G,2 C,4 C,2 | C,>D, E,>F, D,2 C,2 | F,2 C,2 G,4 | %5
[M:2/2] G,2 E,F, G,2 A,2 | G,2 C, D,2 D, G,,2- | G,,2 G,,2 G, A,2 D, | G,2 G,E,/F,/ G,2 E,F,- | %9
 F,D, G,2 G,,2 C,2 | C,2 C,2 F,2 E,F,- | F,A, G,2 G,2 G,,2 | C,2 E,F, G,2 A,2 | %13
 G,2 C,F, D,2 G,,2- | G,,2 G,2 E, C,2 C, | F,2 F,2 F,2 F,2- | F,2 F,F, F,2 F,2 | F,2 F,2 F,2 G,2 | %18
 C,2 C,C, C,C, C,2 | A,,2 G,,2 C,2 C,2 | A,,2 B,,C, D,2 G,,2 | G,6 C,2 | C,3 E, D,C,B,,A,, | %23
 G,,2 G,2 F,3 G, | A,2 G,4 G,2 | E, F,2 D, C,2 A,,2 | D,2 G,,2 G,/F,/E,/C,/ F,D, | G,G,, C,2 A,,4 | %28
 G,,6 G,,2- | G,,2 C,2 F,2 G,2 | C,2 F,4 D,2 | E,2 F,2 G,2 C,2 | C,2 C,2 C,2 C,2 | %33
 C,2 C,2 C,2 G,,2 | G,4 G,2 C,2- | C,2 C,2 F,4 | C,2 G,4 G,,2 | C,2 C,2 z4 |] %38

